X:6823
T:The Girl of Dalkeith
O:england
M:2/2
L:1/8
S:Armitt MS
N:Key signature shown as sharps in top space and  3rd space down (E and
N:A)
K:D Major
f2|d2fd AA fd|egfe dBBc|d2fd Agfe|dBAF DDDD2:||:B2|AEFA B2cd|AdFA BEEB|A
DFA defd|BdAF D/2D/2D|DB:||


